X:1
T:Rianpolka
R:Polka
O:Kalix, Norrbotten
S:Viktor Forsberg
Z:Johan Dahlberg
M: 2/4
L: 1/16
K: G
|:G2Bc d2d2 | (de)dc B2B2 | G2Bc (de)dc | B2A2 A4 | F2AB c2c2 |
(cd)cB A4 |1 F2AB (cd)cB | A2G2 G4 :|2 A2fe (dc)BA |
G4 G4 |] G2Bc d2>c2 | B2B2 A2>F2 | (AB)cd e2>d2 |
c2BA B4 | G2Bc d2>c2 | B2B2 A4 | F2fe (dc)BA |
G4 G4 :|

